X: 1
T: Lady Ramsay
C: Phil Conningham
S: Duncan Chisholm https://www.youtube.com/watch?v=ZPH_guoE-7o
R: strathspey
Z: 2020 John Chambers <jc:trillian.mit.edu>
M: C
L: 1/8
K: G
G>E |\
D3E G3A/B/ | d>Bde E2G>E | D3E G3A/B/ | c2Bd E2G>E |\
D3E G3A/B/ | d>Bde E2DE | G2AB A>BD>E | G6 :|
{A}Bd/a/ |\
g3f B3A/G/ | e2d>e G3A  | B2AB d2D>E | G2-G/A/B A2Bd/a/ |\
g3f B3A/G/ | e2d>e G2DE | G2AB A>BD>E | G6 ||
{A}Bd/a/ |\
g3f B3A/G/ | e2d>e G3A  | B2AB d2D>E | G2-G/A/B A2G>E |\
D3E G3A/B/ | d>Bde E2DE | G2AB A>BD>E | G6 |]
